assets/misc-grey/MiscGrey87.svg

<svg width="32" height="32" viewBox="0 0 32 32" fill="none" xmlns="http://www.w3.org/2000/svg">
<path fill-rule="evenodd" clip-rule="evenodd" d="M29.922 17.25C29.093 17.25 28.422 17.922 28.422 18.75C28.422 19.25 28.422 24.898 28.418 27.581C28.417 27.881 28.416 28.796 27.293 28.833H4.66802C4.31302 28.833 4.04802 28.765 3.94102 28.645C3.78902 28.475 3.76102 28.074 3.77802 27.92C3.78802 27.85 3.79302 27.779 3.79302 27.708V5.083C3.79302 4.777 3.83502 4.37 4.03902 4.168C4.24602 3.961 4.61002 3.96 4.66802 3.958H13.418C14.247 3.958 14.918 3.286 14.918 2.458C14.918 1.63 14.247 0.957999 13.418 0.957999L4.74702 0.959999C4.58202 0.951999 3.11602 0.906999 1.98302 1.982C1.44002 2.498 0.79302 3.454 0.79302 5.083V27.629C0.75102 28.087 0.71502 29.504 1.67102 30.606C2.15702 31.166 3.07002 31.833 4.66802 31.833H27.292C27.292 31.833 27.294 31.833 27.295 31.833C28.951 31.833 31.413 30.702 31.418 27.585C31.422 24.902 31.422 19.25 31.422 18.75C31.422 17.922 30.75 17.25 29.922 17.25Z" fill="#1A1919"/>
<path fill-rule="evenodd" clip-rule="evenodd" d="M31.315 1.90997C31.313 1.90197 31.312 1.89497 31.308 1.88697C31.156 1.51797 30.861 1.22297 30.492 1.06997C30.484 1.06697 30.477 1.06597 30.469 1.06297C30.299 0.99697 30.116 0.95697 29.922 0.95697H20.172C19.343 0.95697 18.672 1.62897 18.672 2.45697C18.672 3.28497 19.343 3.95697 20.172 3.95697H26.301L15.736 14.521C15.15 15.107 15.15 16.057 15.736 16.643C16.029 16.936 16.413 17.082 16.797 17.082C17.181 17.082 17.564 16.936 17.857 16.643L28.422 6.07797V12.582C28.422 13.41 29.093 14.082 29.922 14.082C30.75 14.082 31.422 13.41 31.422 12.582V2.45697C31.422 2.26397 31.382 2.07997 31.315 1.90997Z" fill="#1A1919"/>
</svg>

<svg xmlns="http://www.w3.org/2000/svg" viewBox="0 0 32 32"><path fill-rule="evenodd" d="M29.922 17.25a1.5 1.5 0 00-1.5 1.5c0 .5 0 6.148-.004 8.831-.001.3-.002 1.215-1.125 1.252H4.668c-.355 0-.62-.068-.727-.188-.152-.17-.18-.571-.163-.725a1.5 1.5 0 00.015-.212V5.083c0-.306.042-.713.246-.915.207-.207.571-.208.629-.21h8.75a1.5 1.5 0 100-3L4.747.96C4.582.952 3.116.907 1.983 1.982 1.44 2.498.793 3.454.793 5.083v22.546c-.042.458-.078 1.875.878 2.977.486.56 1.399 1.227 2.997 1.227h22.627c1.656 0 4.118-1.131 4.123-4.248.004-2.683.004-8.335.004-8.835a1.5 1.5 0 00-1.5-1.5z" clip-rule="evenodd"/><path fill-rule="evenodd" d="M31.315 1.91c-.002-.008-.003-.015-.007-.023a1.509 1.509 0 00-.816-.817l-.023-.007a1.505 1.505 0 00-.547-.106h-9.75a1.5 1.5 0 100 3h6.129L15.736 14.521a1.5 1.5 0 002.121 2.122L28.422 6.078v6.504a1.5 1.5 0 103 0V2.457c0-.193-.04-.377-.107-.547z" clip-rule="evenodd"/></svg>
